X:480
T: She Didn't Dance and Dance
T: Pete Sullivan's
S: "Johnny O'Leary of Sliabh Luachra" (#123)
Z: B.Black
L: 1/8
M: 12/8
R: slide
Q: 360
K: D
g2f|e2d (3B/c/B/AB G/A/GG G2A|B2d edB d3 g2f|
e2d BAB G/A/GG G2f|1 efg fed e3 :|2 efg fed e3 ged||
Bcd e2f g2f ggg|Bdc d2e d3 B/c/BA|
Bcd e2f g2f g2a|bag agf e3 e2d|
Bcd e2f g2f gfg|Bdc d2e d3 g2a|
bag agf gfe fed|efg fed e2f g2f||
